X: 15250
T: Girl Of The House, The
R: jig
M: 6/8
K: Dmixolydian
AG|:~F2D DAG|A2 A GEA|DAD AGE|~F2 D DAG|
~F2F GFG|AGA =cde|d=cA GEA|1 DED DAG:|2 DED DAB||
|:~=c2c cAF|~G2G GFG|A2d =cAG|Adc d2 e|
fed =cAG|~F2 F GA=c|d=cA GEA|DED DAB|
~=c2c cAF|~G2G GFG|A2d =cAG|Adc dga|
~f2 d =cAF|~G2 G GA=c|d=cA GEA|DED DAG||

